X:797
T:Reel 797
M:4/4
K:Gmaj
L:1/8
ge|dGBG dGGe|dGBG AGE2|dGBG defa|gedB A2Bd|g2bg agef|dGBG AGEF|GABc dege|dBAB G2|ef|gfge fgaf|gbag fddf|gfgb agab|gedB c2Bd|gfgb agfe|dgfa g2ag|bgag fgag|fdef g2|
